X:197
T:The Bitters
R:
C:Bruce Osborne (Apr. 2006)
Z:abc by bosborne@kos.net
M:3/4
L:1/8
K:Dmaj
DF G|A3 B AG|F3 f ed|{B d }B3 d cB|A3 D FG|\
A3 c de|f3 a fd|e3 d cB|A3 G FG|\
A3 B AG|F3 f ed|{B d }B3 d cB|A3 D FG|\
A3 c df|e3 c BA|d4 dc|d3||\
FA d|f3 a (3faf|d3 f ed|{B d }B3 d cB|A3 D FG|\
A3 c de|f3 a fd|e4 ef|e3 F Ad|\
f3 a (3faf|d3 f ed|{B d }B3 d cB|A3 D FG|\
A3 d fa|g3 e cA|d4 de|d3||
